icon/cg/mic.svg

<svg viewBox="0 0 24 24" fill="none" xmlns="http://www.w3.org/2000/svg" height="1em" width="1em">
  <path fill-rule="evenodd" clip-rule="evenodd" d="M9 4C9 2.34315 10.3431 1 12 1C13.6569 1 15 2.34315 15 4V12C15 13.6569 13.6569 15 12 15C10.3431 15 9 13.6569 9 12V4ZM13 4V12C13 12.5523 12.5523 13 12 13C11.4477 13 11 12.5523 11 12V4C11 3.44772 11.4477 3 12 3C12.5523 3 13 3.44772 13 4Z" fill="currentColor"/>
  <path d="M18 12C18 14.973 15.8377 17.441 13 17.917V21H17V23H7V21H11V17.917C8.16229 17.441 6 14.973 6 12V9H8V12C8 14.2091 9.79086 16 12 16C14.2091 16 16 14.2091 16 12V9H18V12Z" fill="currentColor"/>
</svg>

<svg width="24" height="24" fill="none" xmlns="http://www.w3.org/2000/svg"><path fill-rule="evenodd" clip-rule="evenodd" d="M9 4a3 3 0 1 1 6 0v8a3 3 0 1 1-6 0V4Zm4 0v8a1 1 0 1 1-2 0V4a1 1 0 1 1 2 0Z" fill="currentColor"/><path d="M18 12a6.002 6.002 0 0 1-5 5.917V21h4v2H7v-2h4v-3.083A6.002 6.002 0 0 1 6 12V9h2v3a4 4 0 0 0 8 0V9h2v3Z" fill="currentColor"/></svg>
